X:17
T:Crabs in the Skillet
R:jig
M:6/8
L:1/8
K:D
D | E3 B2D | E2F G2A | B=cB AGF | BAG FED | E3 B2D | E2F G2B |
A^GA dcB | AFD D2 :: B | efe edc | ded dcB | ABc dcB | AFD D2B |
efe edc | ded dcB | ABc dcB | AFD D2 :: B, | EDE FEF | GFG AGA |
B=cB AGF | BAG FED | EDE FEF | GFG B3 | A^GA dcB | AFD D2 :|
